X: 6
T: The Boys Of The Town
R: jig
M: 6/8
L: 1/8
K: Gmaj
GDG GB/c/d | edB dBF | GAF GBd | edB A2 D |~G3 GBd | edB gfg | edB A^GA | BGF G2 :|def gfg | afd edB | dd/e/f gbg | afd e2 g |[1 def gfg | afd efg | edB A^GA | BGF G2 :|[2 dd/e/f gbb | faa ee/f/g | edB A3 | BGF G2 |]


Tune 1035	Setting 14261

